icons/ticket.svg

<svg xmlns="http://www.w3.org/2000/svg" width="24" height="24" viewBox="0 0 24 24">
  <path d="M20,4 C21.6568542,4 23,5.34314575 23,7 L23,7 L23,10 L23,10 L22,10 C20.8954305,10 20,10.8954305 20,12 C20,13.1045695 20.8954305,14 22,14 L22,14 L23,14 L23,17 C23,18.6568542 21.6568542,20 20,20 L20,20 L4,20 C2.34314575,20 1,18.6568542 1,17 L1,17 L1,14 L1,14 L2,14 C3.1045695,14 4,13.1045695 4,12 C4,10.8954305 3.1045695,10 2,10 L2,10 L1,10 L1,7 C1,5.34314575 2.34314575,4 4,4 L4,4 Z"/>
</svg>

<svg xmlns="http://www.w3.org/2000/svg" viewBox="0 0 24 24">
  <path d="M20 4a3 3 0 0 1 3 3v3h-1a2 2 0 1 0 0 4h1v3a3 3 0 0 1-3 3H4a3 3 0 0 1-3-3v-3h1a2 2 0 1 0 0-4H1V7a3 3 0 0 1 3-3z"/>
</svg>
